X: 18397
T: Hunt For Wild Flora
R: reel
M: 4/4
K: Gmajor
DE|:DdcA FGAE|=FAEF EFAD|CDEG cBdc|gfaf edcA|
DdcA FGAE|=FAEF EFAD|CDEG cBAG|E=FFE (D{G}D{F}D)E:|
|:DFA^c (d{e}d{B}d)c|d^cBc BAFA|G(E{G}E{D}E) FEDE|DB,DE DB,A,B,|
DFA^c (d{e}d{B}d)f|gfed ^cBcd|(B{d}B{A}B)A (F{G}F{E}F)A|FEEF (D{G}D{F}D)E:|
CEFG ADED|A,DFD ADED|A,DFD ADDE|dD^cD BDAD|
CEFG ADED|A,DFD ADED|A,DD/D/D B,EE/E/E|(E{G}E{D}E)d ^cdec|
|:d2ad bdad|(a{b}a{f}a)b afed|B2gB aBgB|(g{a}g{f}g)a gfed|
A2aA gAfA|fgfe d^cBc|d(B{d}B{A}B) A(F{G}F{E}F)|1 (E{G}E{D}E)A ^cdec:|2 (E{G}E{D}E)F [D4A,4]||

